packages/landing/src/assets/dev-assets/icons/msg_ai_knowledge.svg

<?xml version="1.0" encoding="UTF-8" standalone="no"?>
<svg
   width="100%"
   height="100%"
   viewBox="0 0 48 48"
   fill="none"
   preserveAspectRatio="xMidYMid meet"
   aria-hidden="true"
   role="img"
   version="1.1"
   id="svg14"
   xmlns:xlink="http://www.w3.org/1999/xlink"
   xmlns="http://www.w3.org/2000/svg"
   xmlns:svg="http://www.w3.org/2000/svg">
  <g
     clip-path="url(#clip0_1725_2324)"
     id="g14"
     style="display:inline">
    <circle
       cx="39.5881"
       cy="40.732201"
       r="1.54058"
       transform="rotate(49.3995,39.5881,40.7322)"
       fill="#ffffff"
       stroke="#080b0e"
       stroke-width="1.2"
       id="circle1" />
    <path
       d="m 7.09628,6.64221 4.95992,4.35139 -6.18476,2.132 z"
       fill="#4be4b4"
       stroke="#080b0e"
       stroke-width="1.2"
       stroke-linejoin="round"
       id="path1"
       style="display:inline;fill:url(#linearGradient17)" />
    <rect
       x="32.712601"
       y="36.334301"
       width="1.41034"
       height="1.41034"
       transform="rotate(-11.7228,32.7126,36.3343)"
       fill="#080b0e"
       stroke="#080b0e"
       stroke-width="1.41034"
       id="rect1" />
    <path
       d="M 8.24134,31.37 9.39453,32.1707 9.24576,31.4429 8.19629,31.0753 Z"
       fill="#080b0e"
       id="path2" />
    <path
       d="m 5.39688,24.2565 c 0,-0.3314 0.26862,-0.6 0.6,-0.6 H 28.142 c 0.3314,0 0.6,0.2686 0.6,0.6 v 13.9634 c 0,0.3314 -0.2686,0.6 -0.6,0.6 H 12.0626 c -0.4331,0 -0.8516,0.1562 -1.1789,0.4398 L 6.38983,43.1544 C 6.00129,43.4911 5.39688,43.2152 5.39688,42.701 Z"
       fill="#ffffff"
       stroke="#080b0e"
       stroke-width="1.2"
       id="path3" />
    <line
       x1="0.60000002"
       y1="-0.60000002"
       x2="17.025499"
       y2="-0.60000002"
       transform="matrix(-1,0,0,1,25.8828,30.1322)"
       stroke="#080b0e"
       stroke-width="1.2"
       stroke-linecap="round"
       id="line3" />
    <line
       x1="0.60000002"
       y1="-0.60000002"
       x2="12.8783"
       y2="-0.60000002"
       transform="matrix(-1,0,0,1,25.625,33.626)"
       stroke="#080b0e"
       stroke-width="1.2"
       stroke-linecap="round"
       id="line4" />
    <rect
       x="17.496401"
       y="9.4610205"
       width="24.781099"
       height="20.0131"
       rx="1.8"
       transform="rotate(7.55413,17.4964,9.46102)"
       fill="#080b0e"
       stroke="#080b0e"
       stroke-width="1.2"
       id="rect4"
       style="display:inline" />
    <path
       d="m 41.469,18.4057 0.9034,0.1198 c 0.9855,0.1307 1.6784,1.0355 1.5477,2.021 l -0.5557,4.1905 c -0.1307,0.9855 -1.0355,1.6785 -2.021,1.5478 L 40.4401,26.165 Z"
       fill="#080b0e"
       stroke="#080b0e"
       stroke-width="1.2"
       id="path4" />
    <path
       d="m 15.6247,22.8744 -0.9033,-0.1198 c -0.9855,-0.1307 -1.6785,-1.0355 -1.5478,-2.021 l 0.5557,-4.1905 c 0.1307,-0.9855 1.0356,-1.6784 2.0211,-1.5477 l 0.9033,0.1198 z"
       fill="#080b0e"
       stroke="#080b0e"
       stroke-width="1.2"
       id="path5" />
    <rect
       x="16.523701"
       y="8.3819199"
       width="24.781099"
       height="20.0131"
       rx="1.8"
       transform="rotate(7.55413,16.5237,8.38192)"
       fill="#4be4b4"
       stroke="#080b0e"
       stroke-width="1.2"
       id="rect5"
       style="display:inline;fill:url(#linearGradient15)" />
    <path
       d="m 40.4925,17.3266 0.9033,0.1198 c 0.9855,0.1307 1.6784,1.0355 1.5478,2.021 l -0.5558,4.1905 c -0.1306,0.9855 -1.0355,1.6785 -2.021,1.5478 l -0.9033,-0.1198 z"
       fill="#080b0e"
       stroke="#080b0e"
       stroke-width="1.2"
       id="path6" />
    <path
       d="M 14.6521,21.7953 13.7487,21.6755 C 12.7632,21.5448 12.0703,20.64 12.201,19.6545 l 0.5557,-4.1905 c 0.1307,-0.9855 1.0355,-1.6784 2.021,-1.5477 l 0.9033,0.1198 z"
       fill="#080b0e"
       stroke="#080b0e"
       stroke-width="1.2"
       id="path7" />
    <path
       d="M 29.2695,6.50635 28.827,9.84319"
       stroke="#080b0e"
       stroke-width="1.2"
       id="path8" />
    <circle
       cx="29.341801"
       cy="5.9827399"
       r="1.66948"
       transform="rotate(7.55413,29.3418,5.98274)"
       fill="#d9f7e9"
       stroke="#080b0e"
       stroke-width="1.2"
       id="circle8"
       style="display:inline;fill:url(#linearGradient20)" />
    <circle
       cx="23.3155"
       cy="17.105"
       r="2.3749101"
       transform="rotate(7.55413,23.3155,17.105)"
       fill="#ffffff"
       stroke="#080b0e"
       stroke-width="1.2"
       id="circle9" />
    <circle
       cx="32.315498"
       cy="18.298599"
       r="2.3749101"
       transform="rotate(7.55413,32.3155,18.2986)"
       fill="#ffffff"
       stroke="#080b0e"
       stroke-width="1.2"
       id="circle10" />
    <path
       d="m 20.361,21.8982 c 0.7311,0.6333 2.9118,2.1983 6.8088,2.7151 3.8969,0.5168 5.8345,-0.3564 6.7763,-0.961"
       stroke="#080b0e"
       stroke-width="1.2"
       stroke-linecap="round"
       id="path10" />
    <circle
       cx="23.1777"
       cy="18.152201"
       r="1.05624"
       transform="rotate(7.55413,23.1777,18.1522)"
       fill="#080b0e"
       id="circle11" />
    <circle
       cx="32.1777"
       cy="19.345699"
       r="1.05624"
       transform="rotate(7.55413,32.1777,19.3457)"
       fill="#080b0e"
       id="circle12" />
    <path
       d="m 41.8405,12.7066 -1.0827,-1.1909 0.026,0.7953 0.939,0.5958 z"
       fill="#080b0e"
       id="path12" />
    <path
       d="m 43.9416,18.7794 -1.0783,-1.1948 0.0231,0.7954 0.9367,0.5992 z"
       fill="#080b0e"
       id="path13" />
    <path
       d="m 12.1958,21.4555 0.9878,1.0938 -0.026,-0.7953 -0.9389,-0.5957 z"
       fill="#080b0e"
       id="path14" />
  </g>
  <defs
     id="defs14">
    <linearGradient
       id="linearGradient18">
      <stop
         style="stop-color:#fb1919;stop-opacity:1;"
         offset="0"
         id="stop18" />
      <stop
         style="stop-color:#ffb900;stop-opacity:1;"
         offset="0.63901871"
         id="stop17" />
    </linearGradient>
    <linearGradient
       id="linearGradient14">
      <stop
         style="stop-color:#ffb900;stop-opacity:1;"
         offset="0"
         id="stop14" />
      <stop
         style="stop-color:#fb1919;stop-opacity:1;"
         offset="1"
         id="stop15" />
    </linearGradient>
    <clipPath
       id="clip0_1725_2324">
      <rect
         width="48"
         height="48"
         fill="white"
         id="rect14" />
    </clipPath>
    <linearGradient
       xlink:href="#linearGradient14"
       id="linearGradient15"
       x1="15.923701"
       y1="18.38847"
       x2="41.9048"
       y2="18.38847"
       gradientUnits="userSpaceOnUse" />
    <linearGradient
       xlink:href="#linearGradient18"
       id="linearGradient17"
       x1="5.2714581"
       y1="9.8839169"
       x2="12.656143"
       y2="9.8839169"
       gradientUnits="userSpaceOnUse" />
    <linearGradient
       xlink:href="#linearGradient14"
       id="linearGradient20"
       x1="27.072321"
       y1="5.9827399"
       x2="31.61128"
       y2="5.9827399"
       gradientUnits="userSpaceOnUse" />
  </defs>
</svg>

<svg xmlns="http://www.w3.org/2000/svg" width="100%" height="100%" viewBox="0 0 48 48" fill="none" preserveAspectRatio="xMidYMid meet" aria-hidden="true" role="img">
<g clip-path="url(#clip0_1725_2324)">
<circle cx="39.5881" cy="40.7322" r="1.54058" transform="rotate(49.3995 39.5881 40.7322)" fill="white" stroke="#080B0E" stroke-width="1.2"></circle>
<path d="M7.09628 6.64221L12.0562 10.9936L5.87144 13.1256L7.09628 6.64221Z" fill="#4BE4B4" stroke="#080B0E" stroke-width="1.2" stroke-linejoin="round"></path>
<rect x="32.7126" y="36.3343" width="1.41034" height="1.41034" transform="rotate(-11.7228 32.7126 36.3343)" fill="#080B0E" stroke="#080B0E" stroke-width="1.41034"></rect>
<path d="M8.24134 31.37L9.39453 32.1707L9.24576 31.4429L8.19629 31.0753L8.24134 31.37Z" fill="#080B0E"></path>
<path d="M5.39688 24.2565C5.39688 23.9251 5.6655 23.6565 5.99688 23.6565H28.142C28.4734 23.6565 28.742 23.9251 28.742 24.2565V38.2199C28.742 38.5513 28.4734 38.8199 28.142 38.8199H12.0626C11.6295 38.8199 11.211 38.9761 10.8837 39.2597L6.38983 43.1544C6.00129 43.4911 5.39688 43.2152 5.39688 42.701V24.2565Z" fill="white" stroke="#080B0E" stroke-width="1.2"></path>
<line x1="0.6" y1="-0.6" x2="17.0255" y2="-0.6" transform="matrix(-1 0 0 1 25.8828 30.1322)" stroke="#080B0E" stroke-width="1.2" stroke-linecap="round"></line>
<line x1="0.6" y1="-0.6" x2="12.8783" y2="-0.6" transform="matrix(-1 0 0 1 25.625 33.626)" stroke="#080B0E" stroke-width="1.2" stroke-linecap="round"></line>
<rect x="17.4964" y="9.46102" width="24.7811" height="20.0131" rx="1.8" transform="rotate(7.55413 17.4964 9.46102)" fill="#080B0E" stroke="#080B0E" stroke-width="1.2"></rect>
<path d="M41.469 18.4057L42.3724 18.5255C43.3579 18.6562 44.0508 19.561 43.9201 20.5465L43.3644 24.737C43.2337 25.7225 42.3289 26.4155 41.3434 26.2848L40.4401 26.165L41.469 18.4057Z" fill="#080B0E" stroke="#080B0E" stroke-width="1.2"></path>
<path d="M15.6247 22.8744L14.7214 22.7546C13.7359 22.6239 13.0429 21.7191 13.1736 20.7336L13.7293 16.5431C13.86 15.5576 14.7649 14.8647 15.7504 14.9954L16.6537 15.1152L15.6247 22.8744Z" fill="#080B0E" stroke="#080B0E" stroke-width="1.2"></path>
<rect x="16.5237" y="8.38192" width="24.7811" height="20.0131" rx="1.8" transform="rotate(7.55413 16.5237 8.38192)" fill="#4BE4B4" stroke="#080B0E" stroke-width="1.2"></rect>
<path d="M40.4925 17.3266L41.3958 17.4464C42.3813 17.5771 43.0742 18.4819 42.9436 19.4674L42.3878 23.6579C42.2572 24.6434 41.3523 25.3364 40.3668 25.2057L39.4635 25.0859L40.4925 17.3266Z" fill="#080B0E" stroke="#080B0E" stroke-width="1.2"></path>
<path d="M14.6521 21.7953L13.7487 21.6755C12.7632 21.5448 12.0703 20.64 12.201 19.6545L12.7567 15.464C12.8874 14.4785 13.7922 13.7856 14.7777 13.9163L15.681 14.0361L14.6521 21.7953Z" fill="#080B0E" stroke="#080B0E" stroke-width="1.2"></path>
<path d="M29.2695 6.50635L28.827 9.84319" stroke="#080B0E" stroke-width="1.2"></path>
<circle cx="29.3418" cy="5.98274" r="1.66948" transform="rotate(7.55413 29.3418 5.98274)" fill="#D9F7E9" stroke="#080B0E" stroke-width="1.2"></circle>
<circle cx="23.3155" cy="17.105" r="2.37491" transform="rotate(7.55413 23.3155 17.105)" fill="white" stroke="#080B0E" stroke-width="1.2"></circle>
<circle cx="32.3155" cy="18.2986" r="2.37491" transform="rotate(7.55413 32.3155 18.2986)" fill="white" stroke="#080B0E" stroke-width="1.2"></circle>
<path d="M20.361 21.8982C21.0921 22.5315 23.2728 24.0965 27.1698 24.6133C31.0667 25.1301 33.0043 24.2569 33.9461 23.6523" stroke="#080B0E" stroke-width="1.2" stroke-linecap="round"></path>
<circle cx="23.1777" cy="18.1522" r="1.05624" transform="rotate(7.55413 23.1777 18.1522)" fill="#080B0E"></circle>
<circle cx="32.1777" cy="19.3457" r="1.05624" transform="rotate(7.55413 32.1777 19.3457)" fill="#080B0E"></circle>
<path d="M41.8405 12.7066L40.7578 11.5157L40.7838 12.311L41.7228 12.9068L41.8405 12.7066Z" fill="#080B0E"></path>
<path d="M43.9416 18.7794L42.8633 17.5846L42.8864 18.38L43.8231 18.9792L43.9416 18.7794Z" fill="#080B0E"></path>
<path d="M12.1958 21.4555L13.1836 22.5493L13.1576 21.754L12.2187 21.1583L12.1958 21.4555Z" fill="#080B0E"></path>
</g>
<defs>
<clipPath id="clip0_1725_2324">
<rect width="48" height="48" fill="white"></rect>
</clipPath>
</defs>
</svg>
